icons/svg/shields/h_barrier_block_shield.svg

<?xml version="1.0" encoding="UTF-8" standalone="no"?>
<!-- Created with Inkscape (http://www.inkscape.org/) -->

<svg
   xmlns:dc="http://purl.org/dc/elements/1.1/"
   xmlns:cc="http://creativecommons.org/ns#"
   xmlns:rdf="http://www.w3.org/1999/02/22-rdf-syntax-ns#"
   xmlns:svg="http://www.w3.org/2000/svg"
   xmlns="http://www.w3.org/2000/svg"
   xmlns:sodipodi="http://sodipodi.sourceforge.net/DTD/sodipodi-0.dtd"
   xmlns:inkscape="http://www.inkscape.org/namespaces/inkscape"
   version="1.0"
   width="16"
   height="16"
   id="svg2"
   sodipodi:version="0.32"
   inkscape:version="0.48.4 r9939"
   sodipodi:docname="h_barrier_block_shield.svg"
   inkscape:output_extension="org.inkscape.output.svg.inkscape">
  <metadata
     id="metadata10">
    <rdf:RDF>
      <cc:Work
         rdf:about="">
        <dc:format>image/svg+xml</dc:format>
        <dc:type
           rdf:resource="http://purl.org/dc/dcmitype/StillImage" />
        <cc:license
           rdf:resource="http://web.resource.org/cc/PublicDomain" />
        <dc:language>en</dc:language>
        <dc:title />
      </cc:Work>
    </rdf:RDF>
  </metadata>
  <sodipodi:namedview
     inkscape:window-height="1004"
     inkscape:window-width="1920"
     inkscape:pageshadow="2"
     inkscape:pageopacity="0.0"
     guidetolerance="10.0"
     gridtolerance="10.0"
     objecttolerance="10.0"
     borderopacity="1.0"
     bordercolor="#666666"
     pagecolor="#ffffff"
     id="base"
     showgrid="false"
     inkscape:zoom="28.963094"
     inkscape:cx="8.1598009"
     inkscape:cy="10.953028"
     inkscape:window-x="1680"
     inkscape:window-y="0"
     inkscape:current-layer="svg2"
     inkscape:window-maximized="1" />
  <defs
     id="defs4">
    <inkscape:perspective
       sodipodi:type="inkscape:persp3d"
       inkscape:vp_x="0 : 290 : 1"
       inkscape:vp_y="0 : 1000 : 0"
       inkscape:vp_z="580 : 290 : 1"
       inkscape:persp3d-origin="290 : 193.33333 : 1"
       id="perspective12" />
    <style
       type="text/css"
       id="style6">
   
    .fil0 {fill:#EF7900}
   
  </style>
    <inkscape:perspective
       id="perspective6807"
       inkscape:persp3d-origin="29.116032 : 19.410688 : 1"
       inkscape:vp_z="58.232063 : 29.116032 : 1"
       inkscape:vp_y="0 : 1000 : 0"
       inkscape:vp_x="0 : 29.116032 : 1"
       sodipodi:type="inkscape:persp3d" />
    <inkscape:perspective
       id="perspective6954"
       inkscape:persp3d-origin="290 : 193.33333 : 1"
       inkscape:vp_z="580 : 290 : 1"
       inkscape:vp_y="0 : 1000 : 0"
       inkscape:vp_x="0 : 290 : 1"
       sodipodi:type="inkscape:persp3d" />
    <inkscape:perspective
       id="perspective2541"
       inkscape:persp3d-origin="240 : 160 : 1"
       inkscape:vp_z="480 : 240 : 1"
       inkscape:vp_y="0 : 1000 : 0"
       inkscape:vp_x="0 : 240 : 1"
       sodipodi:type="inkscape:persp3d" />
    <inkscape:perspective
       id="perspective2750"
       inkscape:persp3d-origin="215 : 143.33333 : 1"
       inkscape:vp_z="430 : 215 : 1"
       inkscape:vp_y="0 : 1000 : 0"
       inkscape:vp_x="0 : 215 : 1"
       sodipodi:type="inkscape:persp3d" />
    <inkscape:perspective
       id="perspective3730"
       inkscape:persp3d-origin="88.929146 : 101.19778 : 1"
       inkscape:vp_z="177.85829 : 151.79668 : 1"
       inkscape:vp_y="0 : 1000 : 0"
       inkscape:vp_x="0 : 151.79668 : 1"
       sodipodi:type="inkscape:persp3d" />
  </defs>
  <path
     sodipodi:type="inkscape:offset"
     inkscape:radius="1.387956"
     inkscape:original="M 2.6875 4.21875 C 2.2404841 4.0994379 2 4.5501401 2 4.9375 L 2 12.09375 C 2 12.48111 2.3001401 12.8125 2.6875 12.8125 L 6.03125 12.8125 C 6.4186099 12.8125 6.75 12.48111 6.75 12.09375 L 6.53125 6.03125 C 6.53125 5.6438901 6.3355079 5.4453045 5.84375 5.28125 L 2.6875 4.21875 z M 10.96875 6.28125 C 10.58139 6.28125 10.28125 6.6126401 10.28125 7 L 9.875 12.125 C 9.875 12.51236 10.175141 12.84375 10.5625 12.84375 L 13.9375 12.8125 C 14.32486 12.8125 14.625 12.48111 14.625 12.09375 L 14.5625 7.1875 C 14.5625 6.8001402 14.26236 6.5 13.875 6.5 L 10.96875 6.28125 z "
     style="fill:#f1eae4;fill-opacity:1;stroke:none;opacity:0.856;color:#000000;fill-rule:nonzero;stroke-width:4.81759071000000016;marker:none;visibility:visible;display:inline;overflow:visible;enable-background:accumulate"
     id="path3797"
     d="M 3.03125,2.875 C 2.3271072,2.6870587 1.4659913,3.0621489 1.09375,3.53125 0.72150874,4.0003511 0.625,4.4565925 0.625,4.9375 l 0,7.15625 c 0,1.104318 0.8835339,2.09375 2.0625,2.09375 l 3.34375,0 c 1.1789661,0 2.09375,-0.914784 2.09375,-2.09375 a 1.3880948,1.3880948 0 0 0 0,-0.0625 l -0.21875,-6 0,-0.0625 -0.03125,0 C 7.859799,5.5473768 7.7178979,4.993266 7.375,4.625 7.0154777,4.2388797 6.6341671,4.0864861 6.28125,3.96875 L 3.125,2.90625 A 1.3880948,1.3880948 0 0 0 3.03125,2.875 z m 7.9375,2.03125 c -1.1271284,0 -1.9257659,0.9232214 -2,1.96875 l -0.0625,0 0,0.125 L 8.5,12 a 1.3880948,1.3880948 0 0 0 0,0.125 c 0,1.10432 0.883533,2.09375 2.0625,2.09375 l 3.375,-0.03125 C 15.116466,14.1875 16,13.198068 16,12.09375 a 1.3880948,1.3880948 0 0 0 0,-0.03125 l -0.0625,-4.875 c 0,-0.010095 1.62e-4,-0.021178 0,-0.03125 -0.01697,-1.0571449 -0.918019,-1.9422794 -1.96875,-2 l 0,-0.03125 -0.09375,0 -2.8125,-0.21875 a 1.3880948,1.3880948 0 0 0 -0.09375,0 z" />
</svg>

<?xml version="1.0" encoding="UTF-8" standalone="no"?>
<!-- Created with Inkscape (http://www.inkscape.org/) -->

<svg
   xmlns:dc="http://purl.org/dc/elements/1.1/"
   xmlns:cc="http://creativecommons.org/ns#"
   xmlns:rdf="http://www.w3.org/1999/02/22-rdf-syntax-ns#"
   xmlns:svg="http://www.w3.org/2000/svg"
   xmlns="http://www.w3.org/2000/svg"
   xmlns:sodipodi="http://sodipodi.sourceforge.net/DTD/sodipodi-0.dtd"
   xmlns:inkscape="http://www.inkscape.org/namespaces/inkscape"
   version="1.0"
   width="16"
   height="16"
   id="svg2"
   sodipodi:version="0.32"
   inkscape:version="0.91 r13725"
   sodipodi:docname="h_barrier_block_shield.svg"
   inkscape:output_extension="org.inkscape.output.svg.inkscape">
  <metadata
     id="metadata10">
    <rdf:RDF>
      <cc:Work
         rdf:about="">
        <dc:format>image/svg+xml</dc:format>
        <dc:type
           rdf:resource="http://purl.org/dc/dcmitype/StillImage" />
        <cc:license
           rdf:resource="http://web.resource.org/cc/PublicDomain" />
        <dc:language>en</dc:language>
        <dc:title />
      </cc:Work>
    </rdf:RDF>
  </metadata>
  <sodipodi:namedview
     inkscape:window-height="1006"
     inkscape:window-width="1920"
     inkscape:pageshadow="2"
     inkscape:pageopacity="0.0"
     guidetolerance="10.0"
     gridtolerance="10.0"
     objecttolerance="10.0"
     borderopacity="1.0"
     bordercolor="#666666"
     pagecolor="#ffffff"
     id="base"
     showgrid="false"
     inkscape:zoom="28.963094"
     inkscape:cx="5.5702985"
     inkscape:cy="10.987555"
     inkscape:window-x="1920"
     inkscape:window-y="0"
     inkscape:current-layer="svg2"
     inkscape:window-maximized="1" />
  <defs
     id="defs4">
    <inkscape:perspective
       sodipodi:type="inkscape:persp3d"
       inkscape:vp_x="0 : 290 : 1"
       inkscape:vp_y="0 : 1000 : 0"
       inkscape:vp_z="580 : 290 : 1"
       inkscape:persp3d-origin="290 : 193.33333 : 1"
       id="perspective12" />
    <style
       type="text/css"
       id="style6">
   
    .fil0 {fill:#EF7900}
   
  </style>
    <inkscape:perspective
       id="perspective6807"
       inkscape:persp3d-origin="29.116032 : 19.410688 : 1"
       inkscape:vp_z="58.232063 : 29.116032 : 1"
       inkscape:vp_y="0 : 1000 : 0"
       inkscape:vp_x="0 : 29.116032 : 1"
       sodipodi:type="inkscape:persp3d" />
    <inkscape:perspective
       id="perspective6954"
       inkscape:persp3d-origin="290 : 193.33333 : 1"
       inkscape:vp_z="580 : 290 : 1"
       inkscape:vp_y="0 : 1000 : 0"
       inkscape:vp_x="0 : 290 : 1"
       sodipodi:type="inkscape:persp3d" />
    <inkscape:perspective
       id="perspective2541"
       inkscape:persp3d-origin="240 : 160 : 1"
       inkscape:vp_z="480 : 240 : 1"
       inkscape:vp_y="0 : 1000 : 0"
       inkscape:vp_x="0 : 240 : 1"
       sodipodi:type="inkscape:persp3d" />
    <inkscape:perspective
       id="perspective2750"
       inkscape:persp3d-origin="215 : 143.33333 : 1"
       inkscape:vp_z="430 : 215 : 1"
       inkscape:vp_y="0 : 1000 : 0"
       inkscape:vp_x="0 : 215 : 1"
       sodipodi:type="inkscape:persp3d" />
    <inkscape:perspective
       id="perspective3730"
       inkscape:persp3d-origin="88.929146 : 101.19778 : 1"
       inkscape:vp_z="177.85829 : 151.79668 : 1"
       inkscape:vp_y="0 : 1000 : 0"
       inkscape:vp_x="0 : 151.79668 : 1"
       sodipodi:type="inkscape:persp3d" />
  </defs>
  <path
     sodipodi:type="inkscape:offset"
     inkscape:radius="1.387956"
     inkscape:original="M 2.6875 4.21875 C 2.2404841 4.0994379 2 4.5501401 2 4.9375 L 2 12.09375 C 2 12.48111 2.3001401 12.8125 2.6875 12.8125 L 6.03125 12.8125 C 6.4186099 12.8125 6.75 12.48111 6.75 12.09375 L 6.53125 6.03125 C 6.53125 5.6438901 6.3355079 5.4453045 5.84375 5.28125 L 2.6875 4.21875 z M 10.96875 6.28125 C 10.58139 6.28125 10.28125 6.6126401 10.28125 7 L 9.875 12.125 C 9.875 12.51236 10.175141 12.84375 10.5625 12.84375 L 13.9375 12.8125 C 14.32486 12.8125 14.625 12.48111 14.625 12.09375 L 14.5625 7.1875 C 14.5625 6.8001402 14.26236 6.5 13.875 6.5 L 10.96875 6.28125 z "
     style="color:#000000;clip-rule:nonzero;display:inline;overflow:visible;visibility:visible;opacity:0.81199999;isolation:auto;mix-blend-mode:normal;color-interpolation:sRGB;color-interpolation-filters:linearRGB;solid-color:#000000;solid-opacity:1;fill:#ebe7e4;fill-opacity:1;fill-rule:nonzero;stroke:none;stroke-width:0.78325456;stroke-linecap:butt;stroke-linejoin:miter;stroke-miterlimit:4;stroke-dasharray:none;stroke-dashoffset:0;stroke-opacity:1;marker:none;color-rendering:auto;image-rendering:auto;shape-rendering:auto;text-rendering:auto;enable-background:accumulate"
     id="path3797"
     d="M 3.0449219,2.8769531 C 2.3407791,2.6890118 1.462085,3.0562895 1.0898438,3.5253906 0.71760249,3.9944917 0.61132812,4.4565925 0.61132812,4.9375 l 0,7.15625 c 0,1.104318 0.89720578,2.107422 2.07617188,2.107422 l 3.34375,0 c 1.1789661,0 2.1074219,-0.928456 2.1074219,-2.107422 a 1.3880948,1.3880948 0 0 0 -0.00195,-0.05078 L 7.9199219,6.03125 c 0,-0.4274689 -0.1717277,-1.0181766 -0.53125,-1.4042969 C 7.0303645,4.2421377 6.6390982,4.0844098 6.2871094,3.9667969 l -3.15625,-1.0625 A 1.3880948,1.3880948 0 0 0 3.0449219,2.8769531 Z M 10.96875,4.8925781 C 9.7897838,4.8925781 8.8925781,5.8956822 8.8925781,7 l 0.00586,-0.109375 -0.40625,5.125 A 1.3880948,1.3880948 0 0 0 8.4863281,12.125 c 0,1.10432 0.8972049,2.107422 2.0761719,2.107422 a 1.3880948,1.3880948 0 0 0 0.01367,0 l 3.361328,-0.03125 c 1.178966,0 2.076172,-1.003104 2.076172,-2.107422 a 1.3880948,1.3880948 0 0 0 0,-0.01758 L 15.951172,7.1875 c 0,-1.1043179 -0.971854,-2.0761719 -2.076172,-2.0761719 l 0.103516,0.00391 -2.90625,-0.21875 a 1.3880948,1.3880948 0 0 0 -0.103516,-0.00391 z"
     transform="matrix(0.8572,0,0,0.8572,1.187027,1.2180279)" />
</svg>
